X: 388
T: Quanjia laodong
%%abc-version 2.0
%%abcx-abcm2ps-target-version 5.9.1 (29 Sep 2008)
%%abc-creator hum2abc beta
%%abcx-conversion-date 2013/10/02 07:52:30
%%abc-edited-by Helmut Schaffrath
%%humdrum-veritas 3000085746
%%humdrum-veritas-data 866191346
%%continueall 1
%%barnumbers 0
L: 1/16
M: 2/4
K: D
d2 d d e c B A [I:setbarnb 1]| 
F A F B, A,2 A, B, | 
d2 d d e c B A | 
F A F B,A,4 | 
d2 F A B2 d2 | 
d2 F A B A F E | 
D B, D E A2 A E | 
D8 |]  



